!!!id: BC076
!!!page: 96
!!!COM: Anonyme (Folklore)
!!!LYR: Arrangement par Chs-Emile GADBOIS
!!!PTL@@FR: Les 100 plus belles chansons
!!!OTL@@FR: Cécilia
!!!PUB: La Bonne Chanson, inc.
!!!YEM: On ne peut reproduire, enregistrer ou diffuser en tout ou en partie le présent ouvrage, sous quelque procédé que ce soit, électronique, mécanique, photographique, sonore, magnétique ou autre, sans avoir obtenu au préalable l'autorisation écrite de l'éditrice.
!!!PDT: 2011
!!!SMA: 2012 Bibliothèque nationale du Québec; Biblothèque nationale du Canada
!!!AGN-Laforte: Chanson en laisse (avec refrain), 13:1(8), R(9)
!!!AGN-type: moralité? marin?
!!!AGN-rime: none
**kern	**text	**text	**text	**text	**text	**text	**text	**text	**text	**text	**text	**text	**text
*clefG2	*	*	*	*	*	*	*	*	*	*	*	*	*
*k[b-]	*	*	*	*	*	*	*	*	*	*	*	*	*
*D:	*	*	*	*	*	*	*	*	*	*	*	*	*
*M6/8	*	*	*	*	*	*	*	*	*	*	*	*	*
*	*vv:1	*vv:2	*vv:3	*vv:4	*vv:5	*vv:6	*vv:7	*vv:8	*vv:9	*vv:10	*vv:11	*vv:12	*vv:13
*	*pline:1	*pline:2r	*pline:3r	*pline:4r	*pline:5r	*pline:6r	*pline:7r	*pline:8r	*pline:9r	*pline:10r	*pline:11r	*pline:12r	*pline:13r
{{8a	Mon	En-	Le	Il	Ma	Nen-	Car	Fil-	Mais	Ce	Les	Ils	Hé-
8a	pèr'	-cor	ma-	de-	mi-	-ni,	si	-le	qui,	se-	oi-	parln't	-las!
!!!v.1: pèr' = père
8a	n'a-	sur	-ri-	-vint	-gno-	Mon-	mon	bat-	la	-rait	-seaux	fran-	que
=1	=1	=1	=1	=1	=1	=1	=1	=1	=1	=1	=1	=1	=1
4a	-vait	la	-nier	a-	-nett[e],	-sieur,	pa-	-tue	bell[e],	les	de	-çais,	le
8a	fil-	mer	qui	-mo-	em-	je	-pa	ce	le	oi-	bois	la-	mond[e]
4cc	-le	il	m'y	-reux	-bras-	n'o-	le	se-	lui	-seaux	par-	-tin	est
8b-	que	m'en-	me-	de	-sez-	-se-	sa-	-rait	di-	de	-lent-	aus-	ma-
=2	=2	=2	=2	=2	=2	=2	=2	=2	=2	=2	=2	=2	=2
4.b-}	moi,	-voie,	-nait,	moi,	-moi,	-rais,	-vait,	moi,	-rait?	bois,	-ils?	-si,	-lin!
{8dd	Mon	En-	Le	Il	Ma	Nen-	Car	Fil-	Mais	Ce	Les	Ils	Hé-
8cc	pèr'	-cor	ma-	de-	mi-	-ni,	si	-le	qui,	se-	oi-	parln't	-las!
8b-	n'a-	sur	-ri-	-vint	-gno-	Mon-	mon	bat-	la	-rait	-seaux	fran-	que
!!LO:PB:g=original
=3	=3	=3	=3	=3	=3	=3	=3	=3	=3	=3	=3	=3	=3
4a	-vait	la	-nier	a-	-nett[e],	-sieur,	pa-	-tue	bell[e],	les	de	-çais,	le
8a	fil-	mer	qui	-mo-	em-	je	-pa	ce	le	oi-	bois	la-	mond[e]
4cc	-le	il	m'y	-reux	-bras-	n'o-	le	se-	lui	-seaux	par-	-tin	est
8a	que	m'en-	me-	de	-sez-	-se-	sa-	-rait	di-	de	-lent-	aus-	ma-
=4	=4	=4	=4	=4	=4	=4	=4	=4	=4	=4	=4	=4	=4
4.g}	moi,	-voie.	-nait,	moi,	-moi.	-rais,	-vait,	moi.	-rait?	bois.	-ils?	-si.	-lin,
*	*pline:2	*pline:3	*pline:4	*pline:5	*pline:6	*pline:7	*pline:8	*pline:9	*pline:10	*pline:11	*pline:12	*pline:13	*pline:14
{8g	En-	Le	Il	-Ma	-Nen-	Car	Fil-	–Mais	-Ce	-Les	–Ils	–Hé-	D'ap-
8g	-cor	ma-	de-	mi-	-ni,	si	-le	qui,	se-	oi-	parln't	-las!	-prendr[e]
8g	sur	-ri-	-vint	-gno-	Mon-	mon	bat-	la	-rait	-seaux	fran-	que	aux
=5	=5	=5	=5	=5	=5	=5	=5	=5	=5	=5	=5	=5	=5
4a	la	-nier	a-	-nett[e],	-sieur,	pa-	-tue	bell[e],	les	de	-çais,	le	oi-
8a	mer	qui	-mo-	em-	je	-pa	ce	le	oi-	bois	la-	mond[e]	-seaux
4cc	il	m'y	-reux	-bras-	n'o-	le	se-	lui	-seaux	par-	-tin	est	le
8a	m'en-	me-	de	-sez-	-se-	sa-	-rait	di-	de	-lent-	aus-	ma-	la-
!!LO:PB:g=original
=6	=6	=6	=6	=6	=6	=6	=6	=6	=6	=6	=6	=6	=6
4.f}}	-voie;	-nait,	moi,	-moi.	-rais	-vait.	moi.	-rait?	bois,	-ils?	-si.	-lin!	-tin.
*>Refrain	*>Refrain	*>Refrain	*>Refrain	*>Refrain	*>Refrain	*>Refrain	*>Refrain	*>Refrain	*>Refrain	*>Refrain	*>Refrain	*>Refrain	*>Refrain
*refrain	*refrain	*refrain	*refrain	*refrain	*refrain	*refrain	*refrain	*refrain	*refrain	*refrain	*refrain	*refrain	*refrain
*	*v: 	*	*	*	*	*	*	*	*	*	*	*	*
{{8f	Sau-	.	.	.	.	.	.	.	.	.	.	.	.
8f	-tez,	.	.	.	.	.	.	.	.	.	.	.	.
8f	mi-	.	.	.	.	.	.	.	.	.	.	.	.
=7	=7	=7	=7	=7	=7	=7	=7	=7	=7	=7	=7	=7	=7
8f	-gnon-	.	.	.	.	.	.	.	.	.	.	.	.
8e	-ne,	.	.	.	.	.	.	.	.	.	.	.	.
8f	Cé-	.	.	.	.	.	.	.	.	.	.	.	.
4g	-ci-	.	.	.	.	.	.	.	.	.	.	.	.
8e	-li-	.	.	.	.	.	.	.	.	.	.	.	.
=8	=8	=8	=8	=8	=8	=8	=8	=8	=8	=8	=8	=8	=8
4c}	-a.	.	.	.	.	.	.	.	.	.	.	.	.
8r	.	.	.	.	.	.	.	.	.	.	.	.	.
{4.b-	Ah!	.	.	.	.	.	.	.	.	.	.	.	.
!!LO:PB:g=original
=9	=9	=9	=9	=9	=9	=9	=9	=9	=9	=9	=9	=9	=9
*	*bis	*	*	*	*	*	*	*	*	*	*	*	*
4a	ah!	.	.	.	.	.	.	.	.	.	.	.	.
8cc	Cé-	.	.	.	.	.	.	.	.	.	.	.	.
(8ccL	-ci-	.	.	.	.	.	.	.	.	.	.	.	.
8ddJ)	.	.	.	.	.	.	.	.	.	.	.	.	.
8ee	-li-	.	.	.	.	.	.	.	.	.	.	.	.
=10	=10	=10	=10	=10	=10	=10	=10	=10	=10	=10	=10	=10	=10
4.ff}	-a!	.	.	.	.	.	.	.	.	.	.	.	.
{4.dd	Ah!	.	.	.	.	.	.	.	.	.	.	.	.
=11	=11	=11	=11	=11	=11	=11	=11	=11	=11	=11	=11	=11	=11
4b-	ah!	.	.	.	.	.	.	.	.	.	.	.	.
8b-	Cé-	.	.	.	.	.	.	.	.	.	.	.	.
4cc	-ci-	.	.	.	.	.	.	.	.	.	.	.	.
8cc	-li-	.	.	.	.	.	.	.	.	.	.	.	.
=12	=12	=12	=12	=12	=12	=12	=12	=12	=12	=12	=12	=12	=12
4f}}	-a.	.	.	.	.	.	.	.	.	.	.	.	.
*	*bis	*	*	*	*	*	*	*	*	*	*	*	*
8r	.	.	.	.	.	.	.	.	.	.	.	.	.
==	==	==	==	==	==	==	==	==	==	==	==	==	==
*-	*-	*-	*-	*-	*-	*-	*-	*-	*-	*-	*-	*-	*-
!!!EED: Isaac Howie
!!!EEV: 2025/Aug/5
